icons/1_Primary/MC-HOST24.svg

<svg width="1024" height="1024" fill="none" xmlns="http://www.w3.org/2000/svg"><g clip-path="url(#a)"><path d="M512 1024c282.77 0 512-229.23 512-512S794.77 0 512 0 0 229.23 0 512s229.23 512 512 512Z" fill="#98DC9A"/><path d="M350 445.61c26.86-8.1 55-10.9 82.9-12.27 28-.94 56.12 0 83.89 3.88 21 3.21 42.21 7.26 61.45 16.56 7.13 3.77 15 8.57 17.52 16.74-12.6-7.12-26.53-11.38-40.58-14.56-35.08-7.83-71.25-9.73-107.11-8.8-28.07 1.21-56.37 3.84-83.49 11.58-11.64 3.44-23.33 7.77-32.83 15.56a29.104 29.104 0 0 0-15.86-9.85c8.86-9.99 21.68-14.91 34.11-18.84Zm-170.4 32.6c.04 20.787.04 41.58 0 62.38.05 4-.32 8.11.48 12.08 5.092.255 10.195.199 15.28-.17.46-20.62-.23-41.27.34-61.88 4.89 14.68 9.1 29.59 14.08 44.24 5.238.546 10.52.513 15.75-.1 4.23-13.61 8.82-27.14 12.39-40.94h1.85c-.18 19.58-.37 39.18.09 58.75a96.139 96.139 0 0 0 15.31-.09c.38-26.63.28-53.3.05-79.93a131.747 131.747 0 0 0-23.6 0c-4.33 15.51-9.52 30.78-13.93 46.27-5.46-15.33-9.25-31.21-14.7-46.55-7.65-.2-15.34-.32-23 .08a41.332 41.332 0 0 0-.42 5.86h.03Zm93.77 19c.25 12.72-.42 25.47.36 38.17.52 4.28 1.68 8.72 5 11.74 4.88 5.21 12.45 6 19.17 5.64 8.31-.31 17.73 1.48 24.77-4.07 7.59-5.82 7.55-16.51 6.25-25.09-5-.19-10-.17-15 0-1.23 5 .93 11.52-3.93 15-6.23-.34-13.23 1.73-18.84-1.64l-1.22-2.78c-.23-13.57-.05-27.15-.1-40.72-.36-3.16 1.54-7 5.05-7.08 5-.19 10.12-.5 15.1.29 5.18 3 2.47 10 4 14.77 4.86 0 9.76.38 14.61-.2 1.68-4.43.8-9.45.43-14.08-.93-7-6.58-12.23-13-14.41-7.68-1.15-15.47-.56-23.18-.62-7.71-.06-15.51 4.72-18.24 12.17-.76 4.3-1.52 8.59-1.26 12.96l.03-.05Zm115.92-23.33a8810.874 8810.874 0 0 0 0 77.29l1 1.37a89.87 89.87 0 0 0 15-.1c.6-10.95 0-21.93.32-32.9 8-.05 16-.08 24 0 .25 10.95-.15 21.9.22 32.84a79.86 79.86 0 0 0 16.08 0c.28-26.58.17-53.19.06-79.78a53.519 53.519 0 0 0-16.19 0c-.24 11 .05 21.95-.17 32.92-8 .09-16 .06-24 0-.25-11 .24-22-.27-33a66.93 66.93 0 0 0-15.23-.14c-.18.4-.62 1.16-.85 1.54l.03-.04Zm75.16 18.17c-.08 2.57.1 41.23.28 43.4.47 5.55 3.06 11.13 7.93 14.07 6.29 4.2 14.13 3.09 21.27 3.23 6.44 0 13.51.57 19.1-3.28 5.56-3.49 8-10.26 8-16.59 0-14 .05-28 0-42-.15-6.52-3.31-13.35-9.39-16.28-5.74-3.28-12.53-2.43-18.84-2.53-7.71-.15-16.56-.59-22.48 5.3-4.5 3.63-5.32 9.45-5.9 14.72l.03-.04Zm33.2-5.81c3.6-.59 7.21 2 6.9 5.87.1 13.607.1 27.217 0 40.83a5.483 5.483 0 0 1-3.394 5.317 5.477 5.477 0 0 1-2.186.413 104.61 104.61 0 0 1-14.13-.19c-2.93-.8-4.1-4-4-6.75-.05-12.35 0-24.68 0-37 0-2.47.09-5.4 2-7.17 4.42-2.42 9.92-.91 14.79-1.28l.02-.04ZM539 482.8c-2.57 6.2-2.3 13.2-1.46 19.74.81 6.87 5.64 13.2 12.45 15 2 .55 4 1 6 1.64 2.15.32 4.3.67 6.43 1.21 3.608.107 7.183.72 10.62 1.82 5.32 2.85 4.89 9.89 2.55 14.6l-2.58 1.59c-5.288.463-10.605.5-15.9.11-4-2.39-3.42-7.36-4.07-11.34a149.385 149.385 0 0 0-15.29 0c-1.06 6-.62 12.54 2.84 17.68 3.46 5.14 9.65 7.77 15.67 7.87 6.23.09 12.46.14 18.69 0 7.41-.24 14.82-4.82 17.24-12a39.919 39.919 0 0 0 .57-19.15 18.23 18.23 0 0 0-3.731-7.945 18.238 18.238 0 0 0-7.009-5.285c-2.66-.69-5.27-1.5-7.87-2.32-2.53-.34-5.07-.69-7.55-1.26-4.56-.34-10.69-.25-12.95-5.13-.41-4.3-1.13-10.53 3.45-12.91 5.05-.59 10.32-.87 15.33.17 5.09 1.71 1.87 8.1 5 11 4.82-.06 9.85.7 14.56-.52 1.25-7-.1-15.12-5.63-20a21.347 21.347 0 0 0-14.87-5.22c-6.85.09-13.74-.41-20.53.62-4.96 1.85-9.8 4.92-11.96 10.03Zm65.23 2.15c5.75 2.83 12.54.53 18.74 1.46.09 22-.29 44.09.19 66.12 5.24.08 10.8 1.06 15.87-.47.76-21.86.1-43.83.32-65.74 5.87-.27 11.76.31 17.61-.33 1.63-4.28.52-9.1.55-13.57-15.9-.73-31.85-.09-47.78-.34-1.86.18-4.7-.59-5.42 1.79-.13 3.69.02 7.39-.04 11.08h-.04Zm239.551 10.87c-1.26.47-2.531.92-3.791 1.35l-3.74 1.29-4.789 1.68c-1.29.46-2.551.92-3.791 1.4l-2.69.53c.6 2.16 1.34 4.28 2.101 6.39 4.489-1.34 8.87-3 13.339-4.48l4.76-1.71c1.271-.45 2.55-.9 3.83-1.37l3.92-1.58c-7.469 7.55-16 14.05-23.88 21.15 0 1.72 1.921 2.81 1.791 4.54-1.06 1-2.231 1.85-3.271 2.84 2.06 2.81 4.72 5.1 6.91 7.82-.13.59-.379 1.76-.519 2.34-2.781-2.78-5.19-5.89-7.891-8.73a22.592 22.592 0 0 0-4.33 3.26 124.912 124.912 0 0 1 9.38 10.39c3.14 2.79 5.651 6.2 8.82 9 1.25-1.2 2.5-2.38 3.761-3.56-3.11-3.23-6.391-6.35-8.911-10.08 4.12.06 5.731 4.75 8.551 7.12 1.349 3 3.76-.06 5.5-.75 1.58 1 3.06 4.32 4.93 1.72 14.169-12.08 27.88-24.71 42.26-36.54C889 500.38 880.531 492 873 482.91c-3.479 1.85-5.95 5.36-9.89 6.31-6.48 2.13-12.87 4.43-19.3 6.6h-.029ZM344.43 519.38h27.78c1.59-4 1.23-8.58.31-12.74a807.85 807.85 0 0 0-28.45 0c-.9 4.15-1.31 8.72.36 12.74Zm472.79 17.4c2.1 2.88 4.8 5.26 7 8.06-.08.53-.239 1.62-.329 2.15-3-2.64-5.411-5.87-8.221-8.69-1.74.1-2.92 1.73-4.389 2.43 1.32 1.67 2.709 3.3 4.139 4.89-14.39 11.66-32.3 17.85-50.12 21.92-25.44 5.51-51.93 7-77.65 2.6-13.19-2.33-26.49-6.16-37.5-14.07l-1.57-1.59c1.08 6.75 6.07 12.27 11.52 16.08 9.94 6.89 21.82 10.21 33.56 12.55 30.9 5.47 63.081 3.07 93.121-5.78 13.74-4.34 27.539-10.07 38.199-20 .92 1.27 1.82 2.56 2.74 3.84a56.175 56.175 0 0 0 5.561-3.92c-3-3.31-6.751-6.14-8.481-10.34 4.44 1.46 6.48 6.26 10 9.08 1.12-1 2.27-1.94 3.411-2.9-3.13-3.63-7-6.72-9.141-11.1-4.7-.62-5.75-9.52-10.799-6.81l-1.051 1.6Zm-149.65-37.42a112.32 112.32 0 0 0 15.62-.2c.27-3.72-.38-7.68 1.25-11.16 2.6-3.12 7-2.48 10.6-2.5 2.94 0 6.671 1 7.46 4.21 1.211 5.23.701 11.5-3.599 15.25-8.77 7.84-18.221 14.92-26.901 22.85-6.79 6.38-4 16.49-4.16 24.71 16.87.5 33.77.36 50.65.06.25-4.48 1.151-9.24-.36-13.57-10.859-1-21.86 0-32.77-.5a9.128 9.128 0 0 1 3.93-6.37c7.36-6.17 14.741-12.31 22.09-18.51a20.226 20.226 0 0 0 7.42-15c.14-5.87.501-12.18-2.519-17.47-3.36-6.15-10.641-9.18-17.431-9.06-8.85.1-19.18-1.53-26.17 5.26-6.25 5.49-5.78 14.47-5.11 22ZM734 521.09c-2.74 4.85-2.599 10.82-1.169 16.08a18.871 18.871 0 0 0 5.609 1.17c9.94 0 19.88-.05 29.831 0-.05 4.72-.101 9.45.18 14.16a82.23 82.23 0 0 0 15-.06c.13-4.7.1-9.41.08-14.11 4 0 8.189.27 12.089-1 0-4.23 0-8.45-.24-12.68-3.919-.27-7.85-.29-11.78-.23-.08-16.4-.14-32.81 0-49.2-1.3-1.21-2.37-3.18-4.42-3-5.539-.17-11.099-.27-16.63.06-2.25.1-3.11 2.58-4.24 4.14-8.14 14.87-16.21 29.79-24.31 44.67Zm34.23-34.42c.05 12.56 0 25.13 0 37.71-6.48-.09-12.999.15-19.449-.05l-.481-.8c6.7-12.23 12.7-24.89 19.88-36.86h.05Z" fill="#fff"/></g><defs><clipPath id="a"><path fill="#fff" d="M0 0h1024v1024H0z"/></clipPath></defs></svg>

<svg width="1024" height="1024" viewBox="0 0 1024 1024" fill="none" xmlns="http://www.w3.org/2000/svg">
<g clip-path="url(#clip0_2_2781)">
<path d="M512 1024C794.77 1024 1024 794.77 1024 512C1024 229.23 794.77 0 512 0C229.23 0 0 229.23 0 512C0 794.77 229.23 1024 512 1024Z" fill="#98DC9A"/>
<path d="M350 445.61C376.86 437.51 405 434.71 432.9 433.34C460.9 432.4 489.02 433.34 516.79 437.22C537.79 440.43 559 444.48 578.24 453.78C585.37 457.55 593.24 462.35 595.76 470.52C583.16 463.4 569.23 459.14 555.18 455.96C520.1 448.13 483.93 446.23 448.07 447.16C420 448.37 391.7 451 364.58 458.74C352.94 462.18 341.25 466.51 331.75 474.3C327.689 469.364 322.115 465.903 315.89 464.45C324.75 454.46 337.57 449.54 350 445.61ZM179.6 478.21C179.64 498.997 179.64 519.79 179.6 540.59C179.65 544.59 179.28 548.7 180.08 552.67C185.172 552.925 190.275 552.869 195.36 552.5C195.82 531.88 195.13 511.23 195.7 490.62C200.59 505.3 204.8 520.21 209.78 534.86C215.018 535.406 220.3 535.373 225.53 534.76C229.76 521.15 234.35 507.62 237.92 493.82H239.77C239.59 513.4 239.4 533 239.86 552.57C244.958 552.947 250.078 552.917 255.17 552.48C255.55 525.85 255.45 499.18 255.22 472.55C247.37 471.844 239.471 471.844 231.62 472.55C227.29 488.06 222.1 503.33 217.69 518.82C212.23 503.49 208.44 487.61 202.99 472.27C195.34 472.07 187.65 471.95 179.99 472.35C179.711 474.291 179.571 476.249 179.57 478.21H179.6ZM273.37 497.21C273.62 509.93 272.95 522.68 273.73 535.38C274.25 539.66 275.41 544.1 278.73 547.12C283.61 552.33 291.18 553.12 297.9 552.76C306.21 552.45 315.63 554.24 322.67 548.69C330.26 542.87 330.22 532.18 328.92 523.6C323.92 523.41 318.92 523.43 313.92 523.6C312.69 528.6 314.85 535.12 309.99 538.6C303.76 538.26 296.76 540.33 291.15 536.96L289.93 534.18C289.7 520.61 289.88 507.03 289.83 493.46C289.47 490.3 291.37 486.46 294.88 486.38C299.88 486.19 305 485.88 309.98 486.67C315.16 489.67 312.45 496.67 313.98 501.44C318.84 501.44 323.74 501.82 328.59 501.24C330.27 496.81 329.39 491.79 329.02 487.16C328.09 480.16 322.44 474.93 316.02 472.75C308.34 471.6 300.55 472.19 292.84 472.13C285.13 472.07 277.33 476.85 274.6 484.3C273.84 488.6 273.08 492.89 273.34 497.26L273.37 497.21ZM389.29 473.88C389.177 499.633 389.177 525.397 389.29 551.17L390.29 552.54C395.285 552.925 400.302 552.891 405.29 552.44C405.89 541.49 405.29 530.51 405.61 519.54C413.61 519.49 421.61 519.46 429.61 519.54C429.86 530.49 429.46 541.44 429.83 552.38C435.177 552.921 440.564 552.921 445.91 552.38C446.19 525.8 446.08 499.19 445.97 472.6C440.605 471.779 435.146 471.779 429.78 472.6C429.54 483.6 429.83 494.55 429.61 505.52C421.61 505.61 413.61 505.58 405.61 505.52C405.36 494.52 405.85 483.52 405.34 472.52C400.286 471.894 395.176 471.847 390.11 472.38C389.93 472.78 389.49 473.54 389.26 473.92L389.29 473.88ZM464.45 492.05C464.37 494.62 464.55 533.28 464.73 535.45C465.2 541 467.79 546.58 472.66 549.52C478.95 553.72 486.79 552.61 493.93 552.75C500.37 552.75 507.44 553.32 513.03 549.47C518.59 545.98 521.03 539.21 521.03 532.88C521.03 518.88 521.08 504.88 521.03 490.88C520.88 484.36 517.72 477.53 511.64 474.6C505.9 471.32 499.11 472.17 492.8 472.07C485.09 471.92 476.24 471.48 470.32 477.37C465.82 481 465 486.82 464.42 492.09L464.45 492.05ZM497.65 486.24C501.25 485.65 504.86 488.24 504.55 492.11C504.65 505.717 504.65 519.327 504.55 532.94C504.583 533.689 504.463 534.436 504.196 535.136C503.929 535.836 503.522 536.474 502.999 537.011C502.476 537.548 501.849 537.972 501.156 538.257C500.463 538.543 499.72 538.683 498.97 538.67C494.262 538.925 489.541 538.862 484.84 538.48C481.91 537.68 480.74 534.48 480.84 531.73C480.79 519.38 480.84 507.05 480.84 494.73C480.84 492.26 480.93 489.33 482.84 487.56C487.26 485.14 492.76 486.65 497.63 486.28L497.65 486.24ZM539 482.8C536.43 489 536.7 496 537.54 502.54C538.35 509.41 543.18 515.74 549.99 517.54C551.99 518.09 553.99 518.54 555.99 519.18C558.14 519.5 560.29 519.85 562.42 520.39C566.028 520.497 569.603 521.11 573.04 522.21C578.36 525.06 577.93 532.1 575.59 536.81L573.01 538.4C567.722 538.863 562.405 538.9 557.11 538.51C553.11 536.12 553.69 531.15 553.04 527.17C547.947 526.909 542.844 526.909 537.75 527.17C536.69 533.17 537.13 539.71 540.59 544.85C544.05 549.99 550.24 552.62 556.26 552.72C562.49 552.81 568.72 552.86 574.95 552.72C582.36 552.48 589.77 547.9 592.19 540.72C593.932 534.478 594.127 527.905 592.76 521.57C592.182 518.657 590.901 515.93 589.029 513.625C587.158 511.319 584.752 509.505 582.02 508.34C579.36 507.65 576.75 506.84 574.15 506.02C571.62 505.68 569.08 505.33 566.6 504.76C562.04 504.42 555.91 504.51 553.65 499.63C553.24 495.33 552.52 489.1 557.1 486.72C562.15 486.13 567.42 485.85 572.43 486.89C577.52 488.6 574.3 494.99 577.43 497.89C582.25 497.83 587.28 498.59 591.99 497.37C593.24 490.37 591.89 482.25 586.36 477.37C582.251 473.797 576.931 471.93 571.49 472.15C564.64 472.24 557.75 471.74 550.96 472.77C546 474.62 541.16 477.69 539 482.8ZM604.23 484.95C609.98 487.78 616.77 485.48 622.97 486.41C623.06 508.41 622.68 530.5 623.16 552.53C628.4 552.61 633.96 553.59 639.03 552.06C639.79 530.2 639.13 508.23 639.35 486.32C645.22 486.05 651.11 486.63 656.96 485.99C658.59 481.71 657.48 476.89 657.51 472.42C641.61 471.69 625.66 472.33 609.73 472.08C607.87 472.26 605.03 471.49 604.31 473.87C604.18 477.56 604.33 481.26 604.27 484.95H604.23ZM843.781 495.82C842.521 496.29 841.25 496.74 839.99 497.17L836.25 498.46L831.461 500.14C830.171 500.6 828.91 501.06 827.67 501.54L824.98 502.07C825.58 504.23 826.32 506.35 827.081 508.46C831.57 507.12 835.951 505.46 840.42 503.98L845.18 502.27C846.451 501.82 847.73 501.37 849.01 500.9L852.93 499.32C845.461 506.87 836.93 513.37 829.05 520.47C829.05 522.19 830.971 523.28 830.841 525.01C829.781 526.01 828.61 526.86 827.57 527.85C829.63 530.66 832.29 532.95 834.48 535.67C834.35 536.26 834.101 537.43 833.961 538.01C831.18 535.23 828.771 532.12 826.07 529.28C824.501 530.189 823.048 531.283 821.74 532.54C825.059 535.826 828.19 539.294 831.12 542.93C834.26 545.72 836.771 549.13 839.94 551.93C841.19 550.73 842.44 549.55 843.701 548.37C840.591 545.14 837.31 542.02 834.79 538.29C838.91 538.35 840.521 543.04 843.341 545.41C844.69 548.41 847.101 545.35 848.841 544.66C850.421 545.66 851.901 548.98 853.771 546.38C867.94 534.3 881.651 521.67 896.031 509.84C889 500.38 880.531 492 873 482.91C869.521 484.76 867.05 488.27 863.11 489.22C856.63 491.35 850.24 493.65 843.81 495.82H843.781ZM344.43 519.38H372.21C373.8 515.38 373.44 510.8 372.52 506.64C363.034 506.473 353.55 506.473 344.07 506.64C343.17 510.79 342.76 515.36 344.43 519.38ZM817.22 536.78C819.32 539.66 822.02 542.04 824.22 544.84C824.14 545.37 823.981 546.46 823.891 546.99C820.891 544.35 818.48 541.12 815.67 538.3C813.93 538.4 812.75 540.03 811.281 540.73C812.601 542.4 813.99 544.03 815.42 545.62C801.03 557.28 783.12 563.47 765.3 567.54C739.86 573.05 713.37 574.54 687.65 570.14C674.46 567.81 661.16 563.98 650.15 556.07L648.58 554.48C649.66 561.23 654.65 566.75 660.1 570.56C670.04 577.45 681.92 580.77 693.66 583.11C724.56 588.58 756.741 586.18 786.781 577.33C800.521 572.99 814.32 567.26 824.98 557.33C825.9 558.6 826.8 559.89 827.72 561.17C829.651 559.977 831.508 558.668 833.281 557.25C830.281 553.94 826.53 551.11 824.8 546.91C829.24 548.37 831.28 553.17 834.8 555.99C835.92 554.99 837.07 554.05 838.211 553.09C835.081 549.46 831.211 546.37 829.07 541.99C824.37 541.37 823.32 532.47 818.271 535.18L817.22 536.78ZM667.57 499.36C672.775 499.656 677.995 499.589 683.19 499.16C683.46 495.44 682.81 491.48 684.44 488C687.04 484.88 691.44 485.52 695.04 485.5C697.98 485.5 701.711 486.5 702.5 489.71C703.711 494.94 703.201 501.21 698.901 504.96C690.131 512.8 680.68 519.88 672 527.81C665.21 534.19 668 544.3 667.84 552.52C684.71 553.02 701.61 552.88 718.49 552.58C718.74 548.1 719.641 543.34 718.13 539.01C707.271 538.01 696.27 539.01 685.36 538.51C685.528 537.231 685.964 536.001 686.642 534.903C687.319 533.805 688.222 532.863 689.29 532.14C696.65 525.97 704.031 519.83 711.38 513.63C713.616 511.804 715.434 509.52 716.714 506.933C717.994 504.346 718.705 501.515 718.8 498.63C718.94 492.76 719.301 486.45 716.281 481.16C712.921 475.01 705.64 471.98 698.85 472.1C690 472.2 679.67 470.57 672.68 477.36C666.43 482.85 666.9 491.83 667.57 499.36ZM734 521.09C731.26 525.94 731.401 531.91 732.831 537.17C734.63 537.843 736.522 538.238 738.44 538.34C748.38 538.34 758.32 538.29 768.271 538.34C768.221 543.06 768.17 547.79 768.451 552.5C773.442 552.937 778.463 552.917 783.451 552.44C783.581 547.74 783.551 543.03 783.531 538.33C787.531 538.33 791.72 538.6 795.62 537.33C795.62 533.1 795.62 528.88 795.38 524.65C791.461 524.38 787.53 524.36 783.6 524.42C783.52 508.02 783.46 491.61 783.6 475.22C782.3 474.01 781.23 472.04 779.18 472.22C773.641 472.05 768.081 471.95 762.55 472.28C760.3 472.38 759.44 474.86 758.31 476.42C750.17 491.29 742.1 506.21 734 521.09ZM768.23 486.67C768.28 499.23 768.23 511.8 768.23 524.38C761.75 524.29 755.231 524.53 748.781 524.33L748.3 523.53C755 511.3 761 498.64 768.18 486.67H768.23Z" fill="white"/>
</g>
<defs>
<clipPath id="clip0_2_2781">
<rect width="1024" height="1024" fill="white"/>
</clipPath>
</defs>
</svg>
